SharedPackages/Infrastructure/DesignResourcesKitIcons/Sources/DesignResourcesKitIcons/DesignSystemImages.xcassets/Color/24px/Bookmarks-Color-24.imageset/Bookmarks-Color-24.svg

<svg width="24" height="24" viewBox="0 0 24 24" fill="none" xmlns="http://www.w3.org/2000/svg">
<path d="M16.9233 5.75H13.2017C11.2954 5.75 9.75 7.29538 9.75 9.2017V19.171C9.75 20.5191 11.2265 21.3467 12.3765 20.6432L14.1619 19.551C14.7147 19.2128 15.4103 19.2128 15.9631 19.551L17.7485 20.6432C18.8985 21.3467 20.375 20.5191 20.375 19.171V9.2017C20.375 7.29538 18.8296 5.75 16.9233 5.75Z" fill="#4397E0"/>
<path d="M13.6328 19.3672C14.4505 18.7827 15.5495 18.7827 16.3672 19.3672L18.0088 20.54C18.7374 21.0608 19.75 20.5401 19.75 19.6445V9.07715C19.75 7.516 18.484 6.25 16.9229 6.25H13.0771C11.516 6.25 10.25 7.516 10.25 9.07715V19.6445C10.25 20.5401 11.2626 21.0608 11.9912 20.54L13.6328 19.3672ZM21 19.6445C21 21.5569 18.8381 22.6695 17.2822 21.5576L15.6406 20.3838C15.2577 20.1101 14.7423 20.1101 14.3594 20.3838L12.7178 21.5576C11.1619 22.6695 9 21.5569 9 19.6445V9.07715C9 6.82565 10.8256 5 13.0771 5H16.9229C19.1744 5 21 6.82565 21 9.07715V19.6445Z" fill="#045EB2"/>
<path d="M14.9756 5C15.6128 5.71932 16 6.66563 16 7.70215V18.2695C16 19.0926 15.5988 19.7666 15.0186 20.1797C14.7882 20.1758 14.557 20.2433 14.3604 20.3838L14.084 20.5811C13.4918 20.6956 12.8471 20.5863 12.2822 20.1826L10.6406 19.0088C10.2578 18.7352 9.74321 18.7353 9.36035 19.0088L9 19.2656V9.07715C9.00002 6.82568 10.8257 5.00002 13.0771 5H14.9756Z" fill="#1E42A4" fill-opacity="0.2"/>
<path d="M10.9233 2.75H7.2017C5.29538 2.75 3.75 4.29538 3.75 6.2017V16.171C3.75 17.5191 5.22649 18.3467 6.3765 17.6432L8.16185 16.551C8.71466 16.2128 9.41034 16.2128 9.96315 16.551L11.7485 17.6432C12.8985 18.3467 14.375 17.5191 14.375 16.171V6.2017C14.375 4.29538 12.8296 2.75 10.9233 2.75Z" fill="#4397E0"/>
<path d="M7.63281 16.3672C8.45048 15.7827 9.54952 15.7827 10.3672 16.3672L12.0088 17.54C12.7374 18.0608 13.75 17.5401 13.75 16.6445V6.07715C13.75 4.516 12.484 3.25 10.9229 3.25H7.07715C5.516 3.25 4.25 4.516 4.25 6.07715V16.6445C4.25 17.5401 5.26263 18.0608 5.99121 17.54L7.63281 16.3672ZM15 16.6445C15 18.5569 12.8381 19.6695 11.2822 18.5576L9.64062 17.3838C9.25773 17.1101 8.74227 17.1101 8.35938 17.3838L6.71777 18.5576C5.16191 19.6695 3 18.5569 3 16.6445V6.07715C3 3.82565 4.82565 2 7.07715 2H10.9229C13.1744 2 15 3.82565 15 6.07715V16.6445Z" fill="#045EB2"/>
</svg>

<svg fill="none" viewBox="0 0 24 24" xmlns="http://www.w3.org/2000/svg">
  <path fill="url(#Bookmarks-Color-24_svg__a)" d="M16.923 5.75h-3.721A3.452 3.452 0 0 0 9.75 9.202v9.969c0 1.348 1.476 2.176 2.627 1.472l1.785-1.092a1.726 1.726 0 0 1 1.801 0l1.786 1.092c1.15.704 2.626-.124 2.626-1.472v-9.97a3.452 3.452 0 0 0-3.452-3.451Z"/>
  <path fill="url(#Bookmarks-Color-24_svg__b)" d="M13.633 19.367a2.351 2.351 0 0 1 2.734 0l1.642 1.173a1.1 1.1 0 0 0 1.741-.895V9.077a2.827 2.827 0 0 0-2.827-2.827h-3.846a2.827 2.827 0 0 0-2.827 2.827v10.568a1.1 1.1 0 0 0 1.741.895l1.642-1.173Zm7.367.277c0 1.913-2.162 3.026-3.718 1.914l-1.641-1.174a1.102 1.102 0 0 0-1.282 0l-1.641 1.174C11.162 22.669 9 21.557 9 19.645V9.077A4.077 4.077 0 0 1 13.077 5h3.846A4.077 4.077 0 0 1 21 9.077v10.568Z"/>
  <path fill="#1E42A4" fill-opacity=".2" d="M14.976 5A4.062 4.062 0 0 1 16 7.702V18.27c0 .823-.401 1.497-.981 1.91a1.098 1.098 0 0 0-.659.204l-.276.197a2.311 2.311 0 0 1-1.802-.398l-1.641-1.174a1.101 1.101 0 0 0-1.28 0L9 19.266V9.077A4.078 4.078 0 0 1 13.077 5h1.899Z"/>
  <path fill="url(#Bookmarks-Color-24_svg__c)" d="M10.923 2.75H7.202A3.452 3.452 0 0 0 3.75 6.202v9.969c0 1.348 1.476 2.176 2.627 1.472l1.785-1.092a1.726 1.726 0 0 1 1.801 0l1.786 1.092c1.15.704 2.626-.124 2.626-1.472v-9.97a3.452 3.452 0 0 0-3.452-3.451Z"/>
  <path fill="url(#Bookmarks-Color-24_svg__d)" d="M7.633 16.367a2.351 2.351 0 0 1 2.734 0l1.642 1.173a1.1 1.1 0 0 0 1.741-.895V6.077a2.827 2.827 0 0 0-2.827-2.827H7.077A2.827 2.827 0 0 0 4.25 6.077v10.568a1.101 1.101 0 0 0 1.741.895l1.642-1.173Zm7.367.277c0 1.913-2.162 3.026-3.718 1.914l-1.641-1.174a1.102 1.102 0 0 0-1.282 0l-1.641 1.174C5.162 19.669 3 18.557 3 16.645V6.077A4.077 4.077 0 0 1 7.077 2h3.846A4.077 4.077 0 0 1 15 6.077v10.568Z"/>
  <defs>
    <linearGradient id="Bookmarks-Color-24_svg__a" x1="15.063" x2="15.063" y1="5.75" y2="22" gradientUnits="userSpaceOnUse">
      <stop stop-color="#8FABF9"/>
      <stop offset="1" stop-color="#7295F6"/>
    </linearGradient>
    <linearGradient id="Bookmarks-Color-24_svg__b" x1="15" x2="15" y1="5.625" y2="23.067" gradientUnits="userSpaceOnUse">
      <stop stop-color="#3969EF"/>
      <stop offset="1" stop-color="#1E42A4"/>
    </linearGradient>
    <linearGradient id="Bookmarks-Color-24_svg__c" x1="9.063" x2="9.063" y1="2.75" y2="19" gradientUnits="userSpaceOnUse">
      <stop stop-color="#8FABF9"/>
      <stop offset="1" stop-color="#7295F6"/>
    </linearGradient>
    <linearGradient id="Bookmarks-Color-24_svg__d" x1="9" x2="9" y1="2.625" y2="20.067" gradientUnits="userSpaceOnUse">
      <stop stop-color="#3969EF"/>
      <stop offset="1" stop-color="#1E42A4"/>
    </linearGradient>
  </defs>
</svg>
